app/themes/uggwc_pro/assets/images/thema/Maschinenbau.svg

<svg width="16" height="16" viewBox="0 0 16 16" fill="none" xmlns="http://www.w3.org/2000/svg">
<path d="M3.25 14C4.265 14 5.26 13.725 6.13 13.2025L8.8 11.6H3.2V14H3.25ZM8.8 5.20005L6.13 3.59755C5.26 3.07505 4.265 2.80005 3.25 2.80005H3.2V5.20005H8.8ZM2.4 5.20005V2.80005H2C1.3375 2.80005 0.8 3.33755 0.8 4.00005V5.20005H1C0.4475 5.20005 0 5.64755 0 6.20005V6.60005V10.2V10.6C0 11.1525 0.4475 11.6 1 11.6H0.8V12.8C0.8 13.4625 1.3375 14 2 14H2.4V11.6H2.6C3.255 11.6 3.835 11.285 4.2 10.8H11.4C13.1325 10.8 14.775 10.2325 15.88 8.76005C16.04 8.54755 16.04 8.25255 15.88 8.04005C14.775 6.56755 13.1325 6.00005 11.4 6.00005H4.2C3.835 5.51505 3.255 5.20005 2.6 5.20005H2.4ZM12.8 8.09005V8.71255C12.8 9.20255 12.4025 9.60255 11.91 9.60255C11.8475 9.60255 11.8 9.55255 11.8 9.49255V7.31005C11.8 7.24755 11.85 7.20005 11.91 7.20005C12.4 7.20005 12.8 7.59755 12.8 8.09005Z" fill="#6E6CFF"/>
</svg>

<svg width="16" height="16" fill="none" xmlns="http://www.w3.org/2000/svg"><path d="M3.25 14c1.015 0 2.01-.275 2.88-.797L8.8 11.6H3.2V14h.05zM8.8 5.2 6.13 3.598A5.591 5.591 0 0 0 3.25 2.8H3.2v2.4h5.6zm-6.4 0V2.8H2A1.2 1.2 0 0 0 .8 4v1.2H1a1 1 0 0 0-1 1v4.4a1 1 0 0 0 1 1H.8v1.2A1.2 1.2 0 0 0 2 14h.4v-2.4h.2c.655 0 1.235-.315 1.6-.8h7.2c1.732 0 3.375-.568 4.48-2.04a.6.6 0 0 0 0-.72C14.775 6.568 13.132 6 11.4 6H4.2a1.998 1.998 0 0 0-1.6-.8h-.2zm10.4 2.89v.623a.89.89 0 0 1-.89.89.11.11 0 0 1-.11-.11V7.31c0-.062.05-.11.11-.11.49 0 .89.398.89.89z" fill="#6E6CFF"/></svg>
